; generated by OrcaSlicer 2.3.0
; filament used [mm] = 1234.56
; filament used [g] = 3.45
; estimated printing time = 2h 30m 15s

; LAYER:0
T0 ; Select tool 0 (Color 1)
G1 X10 Y10 Z0.2 F3000
G1 X20 Y10 E0.5
G1 X20 Y20 E1.0

; LAYER:1
T1 ; Switch to tool 1 (Color 2)
G1 Z0.4
G1 X10 Y10 F3000
G1 X20 Y10 E1.5

; LAYER:2
T2 ; Switch to tool 2 (Color 3)
G1 Z0.6
G1 X10 Y10 F3000

; LAYER:3
T3 ; Switch to tool 3 (Color 4)
G1 Z0.8
G1 X10 Y10 F3000

; LAYER:4
T4 ; Switch to tool 4 (Color 5)
G1 Z1.0
G1 X10 Y10 F3000

; LAYER:5
T0 ; Back to tool 0
G1 Z1.2
G1 X10 Y10 F3000

; LAYER:10
T1 ; Back to tool 1
G1 Z2.0
G1 X10 Y10 F3000

; End of print